X:8119
T:John Locke's Polka
R:Polka
O:Ireland
M:4/4
K:G
gdBG DGBd| gfed cBcB| cafd ^cafd| ^cdef agBd|\
gdBG DGBd | gfed cBcB |
cafd ^cdef | g2G2G2 ::\
BG |\
DGB2 B2AG| EGc2 c2ed|
^ceAB =cdef| agfe dcBA|\
DGB2 B2AG| EGc2 c2ed| ^ceAB =cdef| g2G2 G2 :|
